assets/icons/standard/omni_supervisor.svg

<svg xmlns="http://www.w3.org/2000/svg" width="100" height="100" viewBox="0 0 100 100">
  <path fill="#FFFFFF" d="M67.2251757,28.8925457 C60.803794,31.475647 57.4164154,37.7172558 57.0360849,48 L67.252035,48 C68.1401206,44.5495456 71.2723211,42 75,42 C79.418278,42 83,45.581722 83,50 C83,54.418278 79.418278,58 75,58 C71.2723211,58 68.1401206,55.4504544 67.252035,52 L57.0360849,52 C57.4164154,62.2827442 60.803794,68.524353 67.2251757,71.1074543 C68.0753298,67.6026091 71.2337289,65 75,65 C79.418278,65 83,68.581722 83,73 C83,77.418278 79.418278,81 75,81 C71.4173768,81 68.3847898,78.6450155 67.3658068,75.3986144 C58.2714555,72.6198798 53.4832533,64.6615559 53.0347583,52 L47,52 C45.8954305,52 45,51.1045695 45,50 C45,48.8954305 45.8954305,48 47,48 L53.0347583,48 L53.0347583,48 C53.4832533,35.3384441 58.2714555,27.3801202 67.3658068,24.6013856 C68.3847898,21.3549845 71.4173768,19 75,19 C79.418278,19 83,22.581722 83,27 C83,31.418278 79.418278,35 75,35 C71.2337289,35 68.0753298,32.3973909 67.2251757,28.8925457 Z M75,31 C77.209139,31 79,29.209139 79,27 C79,24.790861 77.209139,23 75,23 C72.790861,23 71,24.790861 71,27 C71,29.209139 72.790861,31 75,31 Z M75,77 C77.209139,77 79,75.209139 79,73 C79,70.790861 77.209139,69 75,69 C72.790861,69 71,70.790861 71,73 C71,75.209139 72.790861,77 75,77 Z M75,54 C77.209139,54 79,52.209139 79,50 C79,47.790861 77.209139,46 75,46 C72.790861,46 71,47.790861 71,50 C71,52.209139 72.790861,54 75,54 Z M45.0743802,68 L22.4628099,68 C19.9338843,68 18,65.6198347 18,62.9421488 C18.1487603,58.9256198 22.3140496,56.8429752 26.6280992,54.9090909 C29.6033058,53.5702479 30.0495868,52.5289256 30.0495868,51.1900826 C30.0495868,49.8512397 29.1570248,48.661157 28.2644628,47.768595 C26.4793388,46.1322314 25.5867769,43.9008264 25.5867769,41.2231405 C25.5867769,36.3140496 28.5619835,32 33.9173554,32 C39.2727273,32 42.2479339,36.3140496 42.2479339,41.2231405 C42.2479339,43.9008264 41.3553719,46.1322314 39.5702479,47.768595 C38.5289256,48.661157 37.785124,49.8512397 37.785124,51.1900826 C37.785124,52.3801653 38.231405,53.5702479 41.2066116,54.9090909 C45.5206612,56.8429752 49.6859504,58.9256198 49.8347107,62.9421488 C49.5371901,65.6198347 47.6033058,68 45.0743802,68 L45.0743802,68 Z"/>
</svg>

<?xml version="1.0"?><svg xmlns="http://www.w3.org/2000/svg" width="100" height="100" viewBox="0 0 100 100"><path fill="#fff" d="m67.2 28.9c-6.4 2.6-9.8 8.8-10.2 19.1h10.3c0.8-3.5 4-6 7.7-6 4.4 0 8 3.6 8 8s-3.6 8-8 8c-3.7 0-6.9-2.5-7.7-6h-10.3c0.4 10.3 3.8 16.5 10.2 19.1 0.9-3.5 4-6.1 7.8-6.1 4.4 0 8 3.6 8 8s-3.6 8-8 8c-3.6 0-6.6-2.4-7.6-5.6-9.1-2.8-13.9-10.7-14.4-23.4h-6c-1.1 0-2-0.9-2-2s0.9-2 2-2h6c0.5-12.7 5.3-20.6 14.4-23.4 1-3.2 4-5.6 7.6-5.6 4.4 0 8 3.6 8 8s-3.6 8-8 8c-3.8 0-6.9-2.6-7.8-6.1z m7.8 2.1c2.2 0 4-1.8 4-4s-1.8-4-4-4-4 1.8-4 4 1.8 4 4 4z m0 46c2.2 0 4-1.8 4-4s-1.8-4-4-4-4 1.8-4 4 1.8 4 4 4z m0-23c2.2 0 4-1.8 4-4s-1.8-4-4-4-4 1.8-4 4 1.8 4 4 4z m-29.9 14h-22.6c-2.6 0-4.5-2.4-4.5-5.1 0.1-4 4.3-6.1 8.6-8 3-1.3 3.5-2.4 3.5-3.7 0-1.4-0.9-2.5-1.8-3.4-1.8-1.7-2.7-3.9-2.7-6.6 0-4.9 3-9.2 8.3-9.2 5.4 0 8.3 4.3 8.3 9.2 0 2.7-0.8 4.9-2.6 6.6-1.1 0.9-1.8 2-1.8 3.4 0 1.2 0.4 2.4 3.4 3.7 4.3 1.9 8.5 4 8.6 8-0.3 2.7-2.2 5.1-4.7 5.1z"></path></svg>
